X: 1040
T: Prince George's Delight.
%R: jig
B: Henry Playford "Apollo's Banquet", London 1687 (5th Edition)
F: https://archive.org/details/apollosbanquetco01rugg
Z: 2017 John Chambers <jc:trillian.mit.edu>
M: 6/4
L: 1/4
K: F
% - - - - - - - - - -
B |\
A>GF AcA | B/c/dB c2c |\
f>ed ege | fFF F2 :: f |\
f>ga gab | a>gf efg |
f>ef dgf | ecc c2c |\
def c2f | BBf A2f |\
Ggf e>de | fAF F2 |]
% - - - - - - - - - -

%%sep 1 1 500
%%sep 1 1 500

